X:3969
L:1/16
M:2/4
K:A
 e2e2f2ac | BA B4 af | e2ecBcBE | A8 | B2e2d2cB | A2GFE2e2 | A2GFEFEB, | E8 |]

